X:186
T: STEH ICH IM FELD
N: E1328
O: Europa, Mitteleuropa, Deutschland
R: Staende -, Soldaten -, Kriegs - Lied
M: 2/4
L: 1/8
K: G
 | G2FA | G2z2 |
B2Ac | B2z2 |
AGFG | ABA2 |
E2AG | FED2 |
c2BA | GBA2 |
dcBA | GBA2 |
B2AB | c2ez |
dBcA | G2z2

@@@ Tune index: 4870
